packages/core/src/svgs/gala.svg

<svg width="24" height="24" viewBox="0 0 24 24" fill="none" xmlns="http://www.w3.org/2000/svg">
<g clip-path="url(#clip0_31_10612)">
<path d="M0 0H24V24H0V0Z" fill="#F0F3FA"/>
<path d="M6.42857 8.14307L12.0171 11.5759L14.16 10.2988L13.2857 9.85735L12.0943 10.6245L8.06571 8.14307L11.94 6.07307L16.7657 8.73878L17.6229 8.22878L12.0171 5.14307L6.42857 8.14307ZM6.85714 9.22307L6 8.67878V15.2574L11.5714 18.8574V12.0559L9.42857 10.7145V11.7474L10.7143 12.5788V17.1988L6.85714 14.7259V9.22307ZM12.4286 17.7688V18.8531L18 15.2788V8.70021L12.4286 12.0559V14.6616L13.2857 14.1088V12.6002L17.1429 10.2859V14.7516L12.4286 17.7731V17.7688Z" fill="black"/>
</g>
<defs>
<clipPath id="clip0_31_10612">
<rect width="24" height="24" fill="white"/>
</clipPath>
</defs>
</svg>

<svg xmlns="http://www.w3.org/2000/svg" width="24" height="24" fill="none" viewBox="0 0 24 24"><g clip-path="url(#a)"><path fill="#F0F3FA" d="M0 0h24v24H0z"/><path fill="#000" d="m6.429 8.143 5.588 3.433 2.143-1.277-.874-.442-1.192.768-4.028-2.482 3.874-2.07 4.826 2.666.857-.51-5.606-3.086zm.428 1.08L6 8.68v6.578l5.571 3.6v-6.801L9.43 10.715v1.032l1.285.832v4.62l-3.857-2.473zm5.572 8.546v1.084L18 15.28V8.7l-5.571 3.356v2.606l.857-.553V12.6l3.857-2.314v4.466l-4.714 3.021z"/></g><defs><clipPath id="a"><path fill="#fff" d="M0 0h24v24H0z"/></clipPath></defs></svg>
